X:1
T:Leighton (Greatorex), SM
T:Henry Wellington Greatorex, 1849
T:Leighton (Greatorex), SM
T:Public Domain
C:Henry Wellington Greatorex, 1849
Z:Public Domain
%%score ( 1 2 ) ( 3 4 )
L:1/8
M:3/4
K:Ab
V:1 treble 
V:2 treble 
V:3 bass 
V:4 bass 
V:1
 [Ac]2 | [Ac]3 [EB] [CA][EB] | [Ac]4 [Ae]2 | [Ae]3 [Gd] [Ac][GB] | A4 [CE]2 | [CE]4 [DF]2 | %6
 (E2 c2) [DB]2 | ([CA]2 [EG]2) [DF]2 | [CE]4 [De]2 | (e2 c2) [CA]2 | [CE]4 [DE]2 | [CE]4 |] %12
V:2
 x2 | x6 | x6 | x6 | A4 x2 | x6 | C4 x2 | x6 | x6 | C4 x2 | x6 | x4 |] %12
V:3
 [A,C]2 | [A,C]3 [E,B,] [C,A,][E,B,] | [A,C]4 [CE]2 | [CE]3 [B,E] [A,E][E,D] | [A,,C]4 [A,,A,]2 | %5
 [A,,A,]4 [A,,A,]2 | [A,,A,]4 [A,,E,]2 | (A,2 E,2) (F,G,) | [A,,A,]4 [G,,E,]2 | [A,,E,]4 [C,E]2 | %10
 (E2 C2) [E,B,]2 | [A,,A,]4 |] %12
V:4
 x2 | x6 | x6 | x6 | x6 | x6 | x6 | A,,4 A,,2 | x6 | x6 | E,4 x2 | x4 |] %12

